Yaru++/actions/16/snap-orthogonal.svg

<svg viewBox="0 0 24 24" xmlns="http://www.w3.org/2000/svg"><path d="m12 4v1h1v-1zm0 3v1h1v-1zm-2 2v5h5v-5zm-6 2v1h1v-1zm2 0v1h1v-1zm2 0v1h1v-1zm8 0v1h1v-1zm3 0v1h1v-1zm-7 4v1h1v-1zm0 2v1h1v-1zm0 2v1h1v-1z" fill="#808080"/></svg>

<svg xmlns="http://www.w3.org/2000/svg" viewBox="0 0 24 24">
 <defs>
  <style id="current-color-scheme" type="text/css">
   .ColorScheme-Text { color:#808080; }
  </style>
 </defs>
 <path style="fill:currentColor" class="ColorScheme-Text" d="M 12 4 L 12 5 L 13 5 L 13 4 L 12 4 z M 12 7 L 12 8 L 13 8 L 13 7 L 12 7 z M 10 9 L 10 14 L 15 14 L 15 9 L 10 9 z M 4 11 L 4 12 L 5 12 L 5 11 L 4 11 z M 6 11 L 6 12 L 7 12 L 7 11 L 6 11 z M 8 11 L 8 12 L 9 12 L 9 11 L 8 11 z M 16 11 L 16 12 L 17 12 L 17 11 L 16 11 z M 19 11 L 19 12 L 20 12 L 20 11 L 19 11 z M 12 15 L 12 16 L 13 16 L 13 15 L 12 15 z M 12 17 L 12 18 L 13 18 L 13 17 L 12 17 z M 12 19 L 12 20 L 13 20 L 13 19 L 12 19 z"/>
</svg>
